X: 34094
T: Reel Des Bananes D'une Autre Saveur
R: reel
M: 4/4
K: Gmajor
|:G2 DG B2GB|dedc BGGB|edBe dBAd|BGEA F2DF|
G2 DG B2GB|c2cB cedc|BdcB AGAd|1 BGFA G2D2:|2 B2G2 GFGA||
|:BddB d2Bc|dedc BGG2|BeeB e2Bd|efed BAGA|
BddB d2Bc|dedc BGGB|edBe dBAd|BGFA [1 G2GA:|2 GDEF||

